packages/ffe-icons/icons/filled/sm/single_bed.svg

<svg xmlns="http://www.w3.org/2000/svg" height="20" viewBox="0 -960 960 960" width="20"><path d="M212.001-515.307q0-27.023 18.891-45.857 18.89-18.835 45.417-18.835h7.692v-83.691q0-26.527 18.907-45.417 18.906-18.89 45.456-18.89h263.605q26.549 0 45.289 18.89 18.741 18.89 18.741 45.417v83.691h7.692q26.827 0 45.567 18.891 18.741 18.89 18.741 45.417v121.69q0 15.829-11.086 26.914-11.085 11.086-27.008 11.086l-28.675 91.307q-1.572 1.935-3.004 3.314-1.431 1.379-4.149 1.379h-4.154q-2.718 0-4.149-1.379-1.432-1.379-3.004-3.314l-28.769-91.307H325.999l-28.769 91.307q-1.572 1.935-3.004 3.314-1.431 1.379-4.149 1.379h-4.154q-2.718 0-4.149-1.379-1.432-1.379-3.004-3.314l-28.675-91.307q-15.923 0-27.008-11.086-11.086-11.085-11.086-26.914v-121.306Zm293.998-64.692H624v-83.691q0-5.385-3.462-8.847-3.462-3.462-8.847-3.462H505.999v96Zm-169.999 0h118.001v-96H348.309q-5.385 0-8.847 3.462Q336-669.075 336-663.69v83.691Z"/></svg>

<svg xmlns="http://www.w3.org/2000/svg" height="20" viewBox="0 -960 960 960" width="20"><path d="M212-515.31q0-27.02 18.89-45.85Q249.78-580 276.31-580H284v-83.69q0-26.53 18.91-45.42Q321.81-728 348.36-728h263.61q26.55 0 45.29 18.89T676-663.69V-580h7.69q26.83 0 45.57 18.89Q748-542.22 748-515.69V-394q0 15.83-11.09 26.91-11.08 11.09-27 11.09l-28.68 91.31q-1.57 1.93-3 3.31-1.44 1.38-4.15 1.38h-4.16q-2.71 0-4.15-1.38-1.43-1.38-3-3.31L634-356H326l-28.77 91.31q-1.57 1.93-3 3.31-1.44 1.38-4.15 1.38h-4.16q-2.71 0-4.15-1.38-1.43-1.38-3-3.31L250.09-356q-15.92 0-27-11.09Q212-378.17 212-394v-121.31ZM506-580h118v-83.69q0-5.38-3.46-8.85-3.46-3.46-8.85-3.46H506v96Zm-170 0h118v-96H348.31q-5.39 0-8.85 3.46-3.46 3.47-3.46 8.85V-580Z"/></svg>
